static/fa/svgs/solid/store-slash.svg

<svg xmlns="http://www.w3.org/2000/svg" viewBox="0 0 640 512"><!--! Font Awesome Free 6.1.1 by @fontawesome - https://fontawesome.com License - https://fontawesome.com/license/free (Icons: CC BY 4.0, Fonts: SIL OFL 1.1, Code: MIT License) Copyright 2022 Fonticons, Inc.--><path d="m94.92 49.09 22.78-35.96C122.8 4.98 131.9 0 141.6 0h356.8c9.7 0 18.8 4.979 23.9 13.13l57.3 90.67c29.7 46.9 3.4 112-52.1 119.4-3.9.5-7.9.8-12.1.8-26 0-49.2-11.4-65.1-29-15.9 17.6-39.1 29-65.2 29s-49.3-11.4-65.2-29c-5.5 6.1-11.8 11.4-18.7 15.7L480 350.9V250.7c11.2 3.4 23.1 5.3 35.4 5.3 5.6 0 11-.4 16.3-1.1 3.4-.5 8.3-1.3 12.3-2.3v148.5l86.8 68c10.4 8.2 12.3 23.3 4.1 33.7-8.2 10.4-23.3 12.3-33.7 4.1L9.196 42.89C-1.236 34.71-3.065 19.63 5.112 9.196 13.29-1.236 28.37-3.065 38.81 5.112L94.92 49.09zM112.2 223.2c-43.84-5.9-69.38-48.1-63.3-88.7l106.4 83.9c-9.6 3.6-20 5.6-30.9 5.6-4.1 0-8.2-.3-12.2-.8zM160 384h205.5l149.4 117.7c-10.1 6.5-22 10.3-34.9 10.3H160c-35.3 0-64-28.7-64-64V252.6c3.87 1 7.9 1.8 11.1 2.3h1c5.2.7 10.7 1.1 16.3 1.1 12.4 0 24.4-1.9 35.6-5.4V384z"/></svg>

<svg xmlns="http://www.w3.org/2000/svg" viewBox="0 0 640 512"><!--! Font Awesome Free 6.1.1 by @fontawesome - https://fontawesome.com License - https://fontawesome.com/license/free (Icons: CC BY 4.0, Fonts: SIL OFL 1.1, Code: MIT License) Copyright 2022 Fonticons, Inc. --><path d="M94.92 49.09L117.7 13.13C122.8 4.98 131.9 .0007 141.6 .0007H498.4C508.1 .0007 517.2 4.979 522.3 13.13L579.6 103.8C609.3 150.7 583 215.8 527.5 223.2C523.6 223.7 519.6 224 515.4 224C489.4 224 466.2 212.6 450.3 195C434.4 212.6 411.2 224 385.1 224C359 224 335.8 212.6 319.9 195C314.4 201.1 308.1 206.4 301.2 210.7L480 350.9V250.7C491.2 254.1 503.1 256 515.4 256C521 256 526.4 255.6 531.7 254.9L531.7 254.9C535.1 254.4 540 253.6 544 252.6V401.1L630.8 469.1C641.2 477.3 643.1 492.4 634.9 502.8C626.7 513.2 611.6 515.1 601.2 506.9L9.196 42.89C-1.236 34.71-3.065 19.63 5.112 9.196C13.29-1.236 28.37-3.065 38.81 5.112L94.92 49.09zM112.2 223.2C68.36 217.3 42.82 175.1 48.9 134.5L155.3 218.4C145.7 222 135.3 224 124.4 224C120.3 224 116.2 223.7 112.2 223.2V223.2zM160 384H365.5L514.9 501.7C504.8 508.2 492.9 512 480 512H160C124.7 512 96 483.3 96 448V252.6C99.87 253.6 103.9 254.4 107.1 254.9L108.1 254.9C113.3 255.6 118.8 256 124.4 256C136.8 256 148.8 254.1 160 250.6V384z"/></svg>
